img/display.svg

<svg width="187" height="65" viewBox="0 0 187 65" fill="none" xmlns="http://www.w3.org/2000/svg">
<rect x="2" y="14" width="32" height="49" rx="3" stroke="white" stroke-width="4"/>
<circle cx="17.5" cy="51.5" r="4.5" fill="white"/>
<path d="M56.416 44.6H62.56V45.356H57.292V48.104H60.04C61.032 48.104 61.784 48.308 62.296 48.716C62.816 49.124 63.076 49.716 63.076 50.492C63.076 51.3 62.796 51.92 62.236 52.352C61.684 52.784 60.888 53 59.848 53H56.416V44.6ZM59.836 52.292C60.612 52.292 61.196 52.144 61.588 51.848C61.988 51.552 62.188 51.112 62.188 50.528C62.188 49.952 61.992 49.524 61.6 49.244C61.216 48.956 60.628 48.812 59.836 48.812H57.292V52.292H59.836ZM67.5348 53.06C66.9268 53.06 66.3788 52.924 65.8908 52.652C65.4028 52.372 65.0188 51.988 64.7388 51.5C64.4588 51.012 64.3188 50.46 64.3188 49.844C64.3188 49.228 64.4588 48.676 64.7388 48.188C65.0188 47.7 65.4028 47.32 65.8908 47.048C66.3788 46.776 66.9268 46.64 67.5348 46.64C68.1428 46.64 68.6908 46.776 69.1788 47.048C69.6668 47.32 70.0468 47.7 70.3188 48.188C70.5988 48.676 70.7388 49.228 70.7388 49.844C70.7388 50.46 70.5988 51.012 70.3188 51.5C70.0468 51.988 69.6668 52.372 69.1788 52.652C68.6908 52.924 68.1428 53.06 67.5348 53.06ZM67.5348 52.304C67.9828 52.304 68.3828 52.204 68.7348 52.004C69.0948 51.796 69.3748 51.504 69.5748 51.128C69.7748 50.752 69.8748 50.324 69.8748 49.844C69.8748 49.364 69.7748 48.936 69.5748 48.56C69.3748 48.184 69.0948 47.896 68.7348 47.696C68.3828 47.488 67.9828 47.384 67.5348 47.384C67.0868 47.384 66.6828 47.488 66.3228 47.696C65.9708 47.896 65.6908 48.184 65.4827 48.56C65.2828 48.936 65.1828 49.364 65.1828 49.844C65.1828 50.324 65.2828 50.752 65.4827 51.128C65.6908 51.504 65.9708 51.796 66.3228 52.004C66.6828 52.204 67.0868 52.304 67.5348 52.304ZM77.6845 46.688V53H76.8325V47.444H73.8085L73.7245 49.004C73.6605 50.316 73.5085 51.324 73.2685 52.028C73.0285 52.732 72.6005 53.084 71.9845 53.084C71.8165 53.084 71.6125 53.052 71.3725 52.988L71.4325 52.256C71.5765 52.288 71.6765 52.304 71.7325 52.304C72.0605 52.304 72.3085 52.152 72.4765 51.848C72.6445 51.544 72.7565 51.168 72.8125 50.72C72.8685 50.272 72.9165 49.68 72.9565 48.944L73.0645 46.688H77.6845ZM82.8185 48.92C83.6105 48.928 84.2105 49.104 84.6185 49.448C85.0345 49.792 85.2425 50.288 85.2425 50.936C85.2425 51.608 85.0185 52.124 84.5705 52.484C84.1305 52.844 83.4905 53.02 82.6505 53.012L80.1065 53V46.688H80.9585V48.896L82.8185 48.92ZM82.6025 52.364C83.1865 52.372 83.6265 52.256 83.9225 52.016C84.2265 51.768 84.3785 51.408 84.3785 50.936C84.3785 50.472 84.2305 50.128 83.9345 49.904C83.6385 49.68 83.1945 49.564 82.6025 49.556L80.9585 49.532V52.34L82.6025 52.364ZM95.5803 46.688V53H86.8683V46.688H87.7203V52.256H90.8163V46.688H91.6683V52.256H94.7283V46.688H95.5803ZM100.617 53.06C100.009 53.06 99.4608 52.924 98.9728 52.652C98.4848 52.372 98.1008 51.988 97.8208 51.5C97.5408 51.012 97.4008 50.46 97.4008 49.844C97.4008 49.228 97.5408 48.676 97.8208 48.188C98.1008 47.7 98.4848 47.32 98.9728 47.048C99.4608 46.776 100.009 46.64 100.617 46.64C101.225 46.64 101.773 46.776 102.261 47.048C102.749 47.32 103.129 47.7 103.401 48.188C103.681 48.676 103.821 49.228 103.821 49.844C103.821 50.46 103.681 51.012 103.401 51.5C103.129 51.988 102.749 52.372 102.261 52.652C101.773 52.924 101.225 53.06 100.617 53.06ZM100.617 52.304C101.065 52.304 101.465 52.204 101.817 52.004C102.177 51.796 102.457 51.504 102.657 51.128C102.857 50.752 102.957 50.324 102.957 49.844C102.957 49.364 102.857 48.936 102.657 48.56C102.457 48.184 102.177 47.896 101.817 47.696C101.465 47.488 101.065 47.384 100.617 47.384C100.169 47.384 99.7648 47.488 99.4048 47.696C99.0528 47.896 98.7728 48.184 98.5648 48.56C98.3648 48.936 98.2648 49.364 98.2648 49.844C98.2648 50.324 98.3648 50.752 98.5648 51.128C98.7728 51.504 99.0528 51.796 99.4048 52.004C99.7648 52.204 100.169 52.304 100.617 52.304ZM105.642 46.688H106.494V51.704L110.706 46.688H111.462V53H110.61V47.984L106.41 53H105.642V46.688ZM108.51 45.776C107.966 45.776 107.534 45.64 107.214 45.368C106.894 45.096 106.73 44.712 106.722 44.216H107.334C107.342 44.528 107.454 44.78 107.67 44.972C107.886 45.156 108.166 45.248 108.51 45.248C108.854 45.248 109.134 45.156 109.35 44.972C109.574 44.78 109.69 44.528 109.698 44.216H110.31C110.302 44.712 110.134 45.096 109.806 45.368C109.486 45.64 109.054 45.776 108.51 45.776ZM123.2 52.256V54.524H122.396V53H116.744V54.524H115.94V52.256H116.3C116.724 52.232 117.012 51.92 117.164 51.32C117.316 50.72 117.42 49.88 117.476 48.8L117.56 46.688H122.216V52.256H123.2ZM118.256 48.848C118.216 49.744 118.14 50.484 118.028 51.068C117.916 51.644 117.716 52.04 117.428 52.256H121.364V47.444H118.328L118.256 48.848ZM124.86 46.688H125.712V51.704L129.924 46.688H130.68V53H129.828V47.984L125.628 53H124.86V46.688ZM135.762 53.06C135.138 53.06 134.578 52.924 134.082 52.652C133.594 52.38 133.21 52 132.93 51.512C132.65 51.016 132.51 50.46 132.51 49.844C132.51 49.228 132.65 48.676 132.93 48.188C133.21 47.7 133.594 47.32 134.082 47.048C134.578 46.776 135.138 46.64 135.762 46.64C136.306 46.64 136.79 46.748 137.214 46.964C137.646 47.172 137.986 47.48 138.234 47.888L137.598 48.32C137.39 48.008 137.126 47.776 136.806 47.624C136.486 47.464 136.138 47.384 135.762 47.384C135.306 47.384 134.894 47.488 134.526 47.696C134.166 47.896 133.882 48.184 133.674 48.56C133.474 48.936 133.374 49.364 133.374 49.844C133.374 50.332 133.474 50.764 133.674 51.14C133.882 51.508 134.166 51.796 134.526 52.004C134.894 52.204 135.306 52.304 135.762 52.304C136.138 52.304 136.486 52.228 136.806 52.076C137.126 51.924 137.39 51.692 137.598 51.38L138.234 51.812C137.986 52.22 137.646 52.532 137.214 52.748C136.782 52.956 136.298 53.06 135.762 53.06ZM145.548 46.688V53H144.696V47.444H140.736V53H139.884V46.688H145.548ZM153.13 46.688V53H152.278V47.444H149.254L149.17 49.004C149.106 50.316 148.954 51.324 148.714 52.028C148.474 52.732 148.046 53.084 147.43 53.084C147.262 53.084 147.058 53.052 146.818 52.988L146.878 52.256C147.022 52.288 147.122 52.304 147.178 52.304C147.506 52.304 147.754 52.152 147.922 51.848C148.09 51.544 148.202 51.168 148.258 50.72C148.314 50.272 148.362 49.68 148.402 48.944L148.51 46.688H153.13ZM161.072 50.108H155.792C155.84 50.764 156.092 51.296 156.548 51.704C157.004 52.104 157.58 52.304 158.276 52.304C158.668 52.304 159.028 52.236 159.356 52.1C159.684 51.956 159.968 51.748 160.208 51.476L160.688 52.028C160.408 52.364 160.056 52.62 159.632 52.796C159.216 52.972 158.756 53.06 158.252 53.06C157.604 53.06 157.028 52.924 156.524 52.652C156.028 52.372 155.64 51.988 155.36 51.5C155.08 51.012 154.94 50.46 154.94 49.844C154.94 49.228 155.072 48.676 155.336 48.188C155.608 47.7 155.976 47.32 156.44 47.048C156.912 46.776 157.44 46.64 158.024 46.64C158.608 46.64 159.132 46.776 159.596 47.048C160.06 47.32 160.424 47.7 160.688 48.188C160.952 48.668 161.084 49.22 161.084 49.844L161.072 50.108ZM158.024 47.372C157.416 47.372 156.904 47.568 156.488 47.96C156.08 48.344 155.848 48.848 155.792 49.472H160.268C160.212 48.848 159.976 48.344 159.56 47.96C159.152 47.568 158.64 47.372 158.024 47.372ZM162.97 46.688H163.822V51.704L168.034 46.688H168.79V53H167.938V47.984L163.738 53H162.97V46.688ZM165.838 45.776C165.294 45.776 164.862 45.64 164.542 45.368C164.222 45.096 164.058 44.712 164.05 44.216H164.662C164.67 44.528 164.782 44.78 164.998 44.972C165.214 45.156 165.494 45.248 165.838 45.248C166.182 45.248 166.462 45.156 166.678 44.972C166.902 44.78 167.018 44.528 167.026 44.216H167.638C167.63 44.712 167.462 45.096 167.134 45.368C166.814 45.64 166.382 45.776 165.838 45.776Z" fill="white"/>
<path d="M65.01 9.5V34H60.46V13.315H55.28V9.5H65.01ZM88.3501 9.5V12.545L78.8301 34H73.9651L83.1701 13.35H73.5451V17.515H69.3101V9.5H88.3501Z" fill="white"/>
<path d="M113.08 31.88V36.38H110.74V34H102.5V36.38H100.18V31.88H100.68C101.36 31.8533 101.82 31.42 102.06 30.58C102.313 29.7267 102.48 28.5267 102.56 26.98L102.7 23.32H111.5V31.88H113.08ZM104.84 27.16C104.787 28.3867 104.687 29.3867 104.54 30.16C104.393 30.9333 104.127 31.5067 103.74 31.88H109V25.44H104.9L104.84 27.16ZM125.073 23.2C126.139 23.2 127.093 23.4333 127.933 23.9C128.773 24.3533 129.433 25 129.913 25.84C130.393 26.6667 130.633 27.6067 130.633 28.66C130.633 29.7133 130.393 30.66 129.913 31.5C129.433 32.3267 128.773 32.9733 127.933 33.44C127.093 33.9067 126.139 34.14 125.073 34.14C124.139 34.14 123.286 33.96 122.513 33.6C121.739 33.2267 121.099 32.7067 120.593 32.04C120.086 31.36 119.759 30.5867 119.613 29.72H117.813V34H115.313V23.32H117.813V27.46H119.653C119.813 26.62 120.146 25.88 120.653 25.24C121.159 24.5867 121.793 24.0867 122.553 23.74C123.313 23.38 124.153 23.2 125.073 23.2ZM125.073 32.02C125.659 32.02 126.186 31.8867 126.653 31.62C127.119 31.34 127.486 30.9467 127.753 30.44C128.019 29.92 128.153 29.3267 128.153 28.66C128.153 27.6467 127.859 26.84 127.273 26.24C126.699 25.6267 125.966 25.32 125.073 25.32C124.179 25.32 123.446 25.6267 122.873 26.24C122.299 26.84 122.013 27.6467 122.013 28.66C122.013 29.6733 122.299 30.4867 122.873 31.1C123.459 31.7133 124.193 32.02 125.073 32.02ZM133.086 23.32H135.586V30.36L141.486 23.32H143.766V34H141.266V26.96L135.386 34H133.086V23.32ZM138.266 22.06C137.186 22.06 136.36 21.8133 135.786 21.32C135.226 20.8133 134.94 20.08 134.926 19.12H136.586C136.6 19.6 136.746 19.98 137.026 20.26C137.32 20.54 137.726 20.68 138.246 20.68C138.753 20.68 139.153 20.54 139.446 20.26C139.753 19.98 139.913 19.6 139.926 19.12H141.626C141.613 20.08 141.32 20.8133 140.746 21.32C140.173 21.8133 139.346 22.06 138.266 22.06ZM157.629 34V26.92L154.029 32.88H152.949L149.409 26.9V34H147.129V23.32H149.749L153.549 30L157.529 23.32H159.869L159.889 34H157.629ZM168.003 34.14C166.923 34.14 165.949 33.9067 165.083 33.44C164.216 32.9733 163.536 32.3267 163.043 31.5C162.563 30.66 162.323 29.7133 162.323 28.66C162.323 27.6067 162.563 26.6667 163.043 25.84C163.536 25.0133 164.216 24.3667 165.083 23.9C165.949 23.4333 166.923 23.2 168.003 23.2C169.096 23.2 170.076 23.4333 170.943 23.9C171.809 24.3667 172.483 25.0133 172.963 25.84C173.456 26.6667 173.703 27.6067 173.703 28.66C173.703 29.7133 173.456 30.66 172.963 31.5C172.483 32.3267 171.809 32.9733 170.943 33.44C170.076 33.9067 169.096 34.14 168.003 34.14ZM168.003 32C168.923 32 169.683 31.6933 170.283 31.08C170.883 30.4667 171.183 29.66 171.183 28.66C171.183 27.66 170.883 26.8533 170.283 26.24C169.683 25.6267 168.923 25.32 168.003 25.32C167.083 25.32 166.323 25.6267 165.723 26.24C165.136 26.8533 164.843 27.66 164.843 28.66C164.843 29.66 165.136 30.4667 165.723 31.08C166.323 31.6933 167.083 32 168.003 32ZM183.912 28.44C185.232 28.84 185.892 29.6933 185.892 31C185.892 31.96 185.532 32.7 184.812 33.22C184.092 33.74 183.026 34 181.612 34H176.172V23.32H181.392C182.699 23.32 183.719 23.56 184.452 24.04C185.186 24.52 185.552 25.2 185.552 26.08C185.552 26.6267 185.406 27.1 185.112 27.5C184.832 27.9 184.432 28.2133 183.912 28.44ZM178.552 27.78H181.172C182.466 27.78 183.112 27.3333 183.112 26.44C183.112 25.5733 182.466 25.14 181.172 25.14H178.552V27.78ZM181.412 32.18C182.786 32.18 183.472 31.7333 183.472 30.84C183.472 30.3733 183.312 30.0267 182.992 29.8C182.672 29.56 182.172 29.44 181.492 29.44H178.552V32.18H181.412Z" fill="white"/>
</svg>

<svg width="187" height="65" fill="none" xmlns="http://www.w3.org/2000/svg"><rect x="2" y="14" width="32" height="49" rx="3" stroke="#fff" stroke-width="4"/><circle cx="17.5" cy="51.5" r="4.5" fill="#fff"/><path d="M56.416 44.6h6.144v.756h-5.268v2.748h2.748c.992 0 1.744.204 2.256.612.52.408.78 1 .78 1.776 0 .808-.28 1.428-.84 1.86-.552.432-1.348.648-2.388.648h-3.432v-8.4zm3.42 7.692c.776 0 1.36-.148 1.752-.444.4-.296.6-.736.6-1.32 0-.576-.196-1.004-.588-1.284-.384-.288-.972-.432-1.764-.432h-2.544v3.48h2.544zm7.699.768a3.319 3.319 0 0 1-1.644-.408 3.063 3.063 0 0 1-1.152-1.152 3.267 3.267 0 0 1-.42-1.656c0-.616.14-1.168.42-1.656.28-.488.664-.868 1.152-1.14a3.319 3.319 0 0 1 1.644-.408c.608 0 1.156.136 1.644.408.488.272.868.652 1.14 1.14.28.488.42 1.04.42 1.656 0 .616-.14 1.168-.42 1.656a2.976 2.976 0 0 1-1.14 1.152 3.319 3.319 0 0 1-1.644.408zm0-.756c.448 0 .848-.1 1.2-.3.36-.208.64-.5.84-.876.2-.376.3-.804.3-1.284s-.1-.908-.3-1.284c-.2-.376-.48-.664-.84-.864a2.314 2.314 0 0 0-1.2-.312c-.448 0-.852.104-1.212.312-.352.2-.632.488-.84.864-.2.376-.3.804-.3 1.284s.1.908.3 1.284c.208.376.488.668.84.876.36.2.764.3 1.212.3zm10.15-5.616V53h-.853v-5.556H73.81l-.084 1.56c-.064 1.312-.216 2.32-.456 3.024-.24.704-.669 1.056-1.285 1.056-.167 0-.371-.032-.611-.096l.06-.732c.143.032.243.048.3.048.328 0 .575-.152.743-.456.168-.304.28-.68.337-1.128a26.6 26.6 0 0 0 .144-1.776l.108-2.256h4.62zm5.133 2.232c.793.008 1.392.184 1.8.528.416.344.625.84.625 1.488 0 .672-.224 1.188-.672 1.548-.44.36-1.08.536-1.92.528L80.106 53v-6.312h.852v2.208l1.86.024zm-.215 3.444c.584.008 1.023-.108 1.32-.348.303-.248.456-.608.456-1.08 0-.464-.148-.808-.445-1.032-.296-.224-.74-.34-1.331-.348l-1.644-.024v2.808l1.644.024zm12.977-5.676V53h-8.712v-6.312h.852v5.568h3.096v-5.568h.852v5.568h3.06v-5.568h.852zm5.037 6.372a3.32 3.32 0 0 1-1.644-.408A3.063 3.063 0 0 1 97.82 51.5a3.267 3.267 0 0 1-.42-1.656c0-.616.14-1.168.42-1.656.28-.488.664-.868 1.152-1.14a3.32 3.32 0 0 1 1.644-.408c.608 0 1.156.136 1.644.408.488.272.868.652 1.14 1.14.28.488.42 1.04.42 1.656 0 .616-.14 1.168-.42 1.656a2.976 2.976 0 0 1-1.14 1.152 3.319 3.319 0 0 1-1.644.408zm0-.756c.448 0 .848-.1 1.2-.3.36-.208.64-.5.84-.876.2-.376.3-.804.3-1.284s-.1-.908-.3-1.284c-.2-.376-.48-.664-.84-.864a2.314 2.314 0 0 0-1.2-.312 2.38 2.38 0 0 0-1.212.312c-.352.2-.632.488-.84.864-.2.376-.3.804-.3 1.284s.1.908.3 1.284c.208.376.488.668.84.876.36.2.764.3 1.212.3zm5.025-5.616h.852v5.016l4.212-5.016h.756V53h-.852v-5.016L106.41 53h-.768v-6.312zm2.868-.912c-.544 0-.976-.136-1.296-.408-.32-.272-.484-.656-.492-1.152h.612a1 1 0 0 0 .336.756c.216.184.496.276.84.276s.624-.092.84-.276a.983.983 0 0 0 .348-.756h.612c-.008.496-.176.88-.504 1.152-.32.272-.752.408-1.296.408zm14.69 6.48v2.268h-.804V53h-5.652v1.524h-.804v-2.268h.36c.424-.024.712-.336.864-.936.152-.6.256-1.44.312-2.52l.084-2.112h4.656v5.568h.984zm-4.944-3.408c-.04.896-.116 1.636-.228 2.22-.112.576-.312.972-.6 1.188h3.936v-4.812h-3.036l-.072 1.404zm6.604-2.16h.852v5.016l4.212-5.016h.756V53h-.852v-5.016l-4.2 5.016h-.768v-6.312zm10.902 6.372a3.436 3.436 0 0 1-1.68-.408 2.976 2.976 0 0 1-1.152-1.14 3.333 3.333 0 0 1-.42-1.668c0-.616.14-1.168.42-1.656.28-.488.664-.868 1.152-1.14a3.436 3.436 0 0 1 1.68-.408c.544 0 1.028.108 1.452.324.432.208.772.516 1.02.924l-.636.432a1.945 1.945 0 0 0-.792-.696c-.32-.16-.668-.24-1.044-.24-.456 0-.868.104-1.236.312-.36.2-.644.488-.852.864-.2.376-.3.804-.3 1.284 0 .488.1.92.3 1.296.208.368.492.656.852.864.368.2.78.3 1.236.3.376 0 .724-.076 1.044-.228.32-.152.584-.384.792-.696l.636.432c-.248.408-.588.72-1.02.936a3.304 3.304 0 0 1-1.452.312zm9.786-6.372V53h-.852v-5.556h-3.96V53h-.852v-6.312h5.664zm7.582 0V53h-.852v-5.556h-3.024l-.084 1.56c-.064 1.312-.216 2.32-.456 3.024-.24.704-.668 1.056-1.284 1.056-.168 0-.372-.032-.612-.096l.06-.732c.144.032.244.048.3.048.328 0 .576-.152.744-.456.168-.304.28-.68.336-1.128a26.6 26.6 0 0 0 .144-1.776l.108-2.256h4.62zm7.942 3.42h-5.28c.048.656.3 1.188.756 1.596.456.4 1.032.6 1.728.6.392 0 .752-.068 1.08-.204.328-.144.612-.352.852-.624l.48.552c-.28.336-.632.592-1.056.768a3.507 3.507 0 0 1-1.38.264c-.648 0-1.224-.136-1.728-.408a3.038 3.038 0 0 1-1.164-1.152 3.267 3.267 0 0 1-.42-1.656c0-.616.132-1.168.396-1.656.272-.488.64-.868 1.104-1.14.472-.272 1-.408 1.584-.408a3.05 3.05 0 0 1 1.572.408c.464.272.828.652 1.092 1.14.264.48.396 1.032.396 1.656l-.012.264zm-3.048-2.736c-.608 0-1.12.196-1.536.588-.408.384-.64.888-.696 1.512h4.476c-.056-.624-.292-1.128-.708-1.512-.408-.392-.92-.588-1.536-.588zm4.946-.684h.852v5.016l4.212-5.016h.756V53h-.852v-5.016l-4.2 5.016h-.768v-6.312zm2.868-.912c-.544 0-.976-.136-1.296-.408-.32-.272-.484-.656-.492-1.152h.612a1 1 0 0 0 .336.756c.216.184.496.276.84.276s.624-.092.84-.276a.983.983 0 0 0 .348-.756h.612c-.008.496-.176.88-.504 1.152-.32.272-.752.408-1.296.408zM65.01 9.5V34h-4.55V13.315h-5.18V9.5h9.73zm23.34 0v3.045L78.83 34h-4.865l9.205-20.65h-9.625v4.165H69.31V9.5h19.04zM113.08 31.88v4.5h-2.34V34h-8.24v2.38h-2.32v-4.5h.5c.68-.027 1.14-.46 1.38-1.3.253-.853.42-2.053.5-3.6l.14-3.66h8.8v8.56h1.58zm-8.24-4.72c-.053 1.227-.153 2.227-.3 3-.147.773-.413 1.347-.8 1.72H109v-6.44h-4.1l-.06 1.72zm20.233-3.96c1.066 0 2.02.233 2.86.7.84.453 1.5 1.1 1.98 1.94.48.827.72 1.767.72 2.82s-.24 2-.72 2.84a5.127 5.127 0 0 1-1.98 1.94c-.84.467-1.794.7-2.86.7-.934 0-1.787-.18-2.56-.54a5.216 5.216 0 0 1-1.92-1.56 5.293 5.293 0 0 1-.98-2.32h-1.8V34h-2.5V23.32h2.5v4.14h1.84c.16-.84.493-1.58 1-2.22a4.982 4.982 0 0 1 1.9-1.5c.76-.36 1.6-.54 2.52-.54zm0 8.82a3.13 3.13 0 0 0 1.58-.4c.466-.28.833-.673 1.1-1.18.266-.52.4-1.113.4-1.78 0-1.013-.294-1.82-.88-2.42-.574-.613-1.307-.92-2.2-.92-.894 0-1.627.307-2.2.92-.574.6-.86 1.407-.86 2.42s.286 1.827.86 2.44c.586.613 1.32.92 2.2.92zm8.013-8.7h2.5v7.04l5.9-7.04h2.28V34h-2.5v-7.04l-5.88 7.04h-2.3V23.32zm5.18-1.26c-1.08 0-1.906-.247-2.48-.74-.56-.507-.846-1.24-.86-2.2h1.66c.014.48.16.86.44 1.14.294.28.7.42 1.22.42.507 0 .907-.14 1.2-.42.307-.28.467-.66.48-1.14h1.7c-.013.96-.306 1.693-.88 2.2-.573.493-1.4.74-2.48.74zM157.629 34v-7.08l-3.6 5.96h-1.08l-3.54-5.98V34h-2.28V23.32h2.62l3.8 6.68 3.98-6.68h2.34l.02 10.68h-2.26zm10.374.14c-1.08 0-2.054-.233-2.92-.7a5.191 5.191 0 0 1-2.04-1.94c-.48-.84-.72-1.787-.72-2.84s.24-1.993.72-2.82a5.191 5.191 0 0 1 2.04-1.94c.866-.467 1.84-.7 2.92-.7 1.093 0 2.073.233 2.94.7a5.06 5.06 0 0 1 2.02 1.94c.493.827.74 1.767.74 2.82s-.247 2-.74 2.84a5.06 5.06 0 0 1-2.02 1.94c-.867.467-1.847.7-2.94.7zm0-2.14c.92 0 1.68-.307 2.28-.92.6-.613.9-1.42.9-2.42s-.3-1.807-.9-2.42c-.6-.613-1.36-.92-2.28-.92-.92 0-1.68.307-2.28.92-.587.613-.88 1.42-.88 2.42s.293 1.807.88 2.42c.6.613 1.36.92 2.28.92zm15.909-3.56c1.32.4 1.98 1.253 1.98 2.56 0 .96-.36 1.7-1.08 2.22-.72.52-1.786.78-3.2.78h-5.44V23.32h5.22c1.307 0 2.327.24 3.06.72.734.48 1.1 1.16 1.1 2.04 0 .547-.146 1.02-.44 1.42-.28.4-.68.713-1.2.94zm-5.36-.66h2.62c1.294 0 1.94-.447 1.94-1.34 0-.867-.646-1.3-1.94-1.3h-2.62v2.64zm2.86 4.4c1.374 0 2.06-.447 2.06-1.34 0-.467-.16-.813-.48-1.04-.32-.24-.82-.36-1.5-.36h-2.94v2.74h2.86z" fill="#fff"/></svg>
